X:19133
T:Xota d'Os Coutos (XA 42)
T:Jota d'Os Coutos (XA 42)
R:Xota
C:Tradicional
S:Msica Tradicional Asturiana, (C) Tello & Tito. Asturies, 2001.
S:http://pagina.de/MusTradAst <telloytito@asturies.org>
O:Os Coutos (Ibias)
A:Asturies
Z:Mtodu de Xuacu Amieva 42
M:3/8
L:1/8
Q:3/8=80
K:C
G
|: c2 B|GAB|c2 B/A/|B2 G|B2 ~A|GFG|A2 ~G/F/|[1 E2 G :|[2 E G/G/G/G/|
|: G A/~G/F/E/|D F/F/F/F/|F G/F/~E/D/|[1 C G/G/G/G/ :|[2 C C/D/E/F/|
|: G/A/~G/F/ G|G C/D/E/F/|A/B/~A/G/ A|~A C/D/E/F/ :|
|G/A/~G/F/ G|G C/D/E/F/|A/B/~A/G/ A|~A G/A/B/c/|
|A/B/~A/G/ A|~A G/A/B/c/|A/B/~A/G/ A|~A G/A/B/c/|
|~dcB|~AGF|~F~E~D|C~EG|
|C~EG|C E/E/G/G/|C E/E/G/G/|C~EG|FD~C|B,D/D/D/E/|C3-|C2 G|"fin"
|: F2 ~E|CDE|F2 ~E/D/|E2 C|E2 ~D|CB,C|D2 E/D/|[1 C2 C :|[2 C2 G||
